**kern	**kern	**dynam
*part1	*part1	*part1
*staff2	*staff1	*
*I"Piano	*	*
*clefF4	*clefG2	*
*k[]	*k[]	*
=1	=1	=1
4CC 4C	4c 4e 4cc	.
8FF 8F	8c 8f 8a	.
=	=	=
4EE 4E	4c 4g 4g	.
!	!LO:TX:b:i:t=cresc.	!
8CC 8C	8e 8g 8cc	.
=	=	=
4AAA 4AA	(8eL 8a 8cc 8ee	.
.	8d#X) 8a 8cc 8dd#X	.
8GGG 8GG	8eJ 8a 8cc 8ee	.
=	=	=
!	!LO:TX:a:i:t=ten.	!
8FFF#XL 8FF#X	[4.a: [4.cc: [4.ddn: [4.aa:	.
8AAA 8AA	.	.
8DDJ 8D	.	.
=	=	=
8FF#X 8F#X	8a] 8cc] 8dd] 8aa]	.
8r	8r	.
8FF# 8F#	8c 8d 8a 8dd	mf
=	=	=
4.GG 4.G	4.c: 4.g: 4.ee:	.
=	=	=
4.GG 4.G	4.c#X: 4.a: 4.ee:	.
=	=	=
4.GG 4.G	4.d: 4.a: 4.ff:	.
=	=	=
4.GG 4.G	4.d 4.f 4.b	.
=	=	=
*-	*-	*-
!!!system-decoration: {(s1,s2)}
